X: 59
M:2/4
L:1/16
K:G
ud2"^Segno"|\
g2 bg dBcA | ceBd AGEG |  GFGE  DFAB | ceBd Acef |
g2 bg dBcA | ceBd AGEG |  GFEz g2 fg | ecAF G2  ::
gafg  edAB | ceBd AGEF |  GFGE  zgfg | ecAF G2z2"Segno":|


